X:31
T:Larry Redican's
R:Hornpipe
D:The Invasion, Green Linnet GLCD 1074
M:C|
L:1/8
K:D
AF|DEFD EFDE|FAdA (3Bcd AF|DFAF DGBG|DFAF EAcA|
~D2DF AFDE|FAdA  (3Bcd AF|GBGB (3.f.gA FA| EAce d2:|
fg|afdA ge(3.c.BA|fd (3Bcd ecAF|GAFA EAFA|(3GAG FA E2fg|
afdA ge (3.c.BA|fd (3Bcd ecAF|GBGB (3.f.gA FA|EAce d2 fg|
afdA ge (3.c.BA|fd (3Bcd ecAF|(3GAG FA EAFA|GAFA E2fg|
afdA ge (3.c.BA|fd (3Bcd ecAF|GBGB (3.f.gA FA|EAce d2 ||
